img/svg/service-pool.svg

<?xml version="1.0" encoding="utf-8"?><!DOCTYPE svg PUBLIC "-//W3C//DTD SVG 1.1//EN" "http://www.w3.org/Graphics/SVG/1.1/DTD/svg11.dtd"><svg version="1.1" baseProfile="full" xmlns="http://www.w3.org/2000/svg" xmlns:xlink="http://www.w3.org/1999/xlink" xmlns:ev="http://www.w3.org/2001/xml-events"   height="10px"   width="18px" ><path fill="rgb( 255, 102, 0 )" d="M17.438,9.35199999999998 C17.115,9.61000000000001 16.628,10 15.75,10 C14.871,10 14.384,9.61000000000001 14.062,9.35199999999998 C13.826,9.16300000000001 13.746,9.09899999999999 13.499,9.09899999999999 C13.253,9.09899999999999 13.174,9.16199999999998 12.937,9.35199999999998 C12.615,9.61000000000001 12.128,10 11.25,10 C10.371,10 9.88400000000001,9.61000000000001 9.56200000000001,9.35199999999998 C9.32600000000002,9.16199999999998 9.24599999999998,9.09899999999999 9,9.09899999999999 C8.75300000000004,9.09899999999999 8.67399999999998,9.16199999999998 8.43799999999999,9.35199999999998 C8.11500000000001,9.61000000000001 7.62800000000004,10 6.75,10 C5.87099999999998,10 5.38400000000001,9.61000000000001 5.06200000000001,9.35199999999998 C4.82600000000002,9.16199999999998 4.74599999999998,9.09899999999999 4.5,9.09899999999999 C4.25400000000002,9.09899999999999 4.17399999999998,9.16199999999998 3.93799999999999,9.35199999999998 C3.61599999999999,9.61000000000001 3.12900000000002,10 2.25,10 C1.37099999999998,10 0.88400000000001,9.61000000000001 0.56200000000001,9.35199999999998 C0.32600000000002,9.16199999999998 0.24599999999998,9.09899999999999 0,9.09899999999999 C0,9.09899999999999 0,7.29599999999999 0,7.29599999999999 C0.87900000000002,7.29599999999999 1.36599999999999,7.68599999999998 1.68799999999999,7.94499999999999 C1.92399999999998,8.13400000000001 2.00400000000002,8.197 2.25,8.197 C2.49599999999998,8.197 2.57600000000002,8.13400000000001 2.81200000000001,7.94499999999999 C3.13400000000001,7.68599999999998 3.62099999999998,7.29599999999999 4.5,7.29599999999999 C5.37800000000004,7.29599999999999 5.86500000000001,7.68599999999998 6.18799999999999,7.94499999999999 C6.42399999999998,8.13400000000001 6.50300000000004,8.197 6.75,8.197 C6.99599999999998,8.197 7.07600000000002,8.13400000000001 7.31200000000001,7.94499999999999 C7.63400000000001,7.68599999999998 8.12099999999998,7.29599999999999 9,7.29599999999999 C9.87800000000004,7.29599999999999 10.365,7.68599999999998 10.687,7.94499999999999 C10.924,8.13400000000001 11.003,8.197 11.25,8.197 C11.496,8.197 11.575,8.13400000000001 11.812,7.94499999999999 C12.134,7.68599999999998 12.621,7.29599999999999 13.499,7.29599999999999 C14.378,7.29599999999999 14.865,7.68599999999998 15.187,7.94499999999999 C15.424,8.13400000000001 15.503,8.197 15.75,8.197 C15.996,8.197 16.076,8.13400000000001 16.312,7.94499999999999 C16.634,7.68599999999998 17.121,7.29599999999999 18,7.29599999999999 C18,7.29599999999999 18,9.09899999999999 18,9.09899999999999 C17.754,9.09899999999999 17.674,9.16199999999998 17.438,9.35199999999998 ZM13.99,6.392 C12.373,6.392 11.062,5.08100000000002 11.062,3.46300000000002 C11.062,1.84500000000003 12.373,0.53300000000002 13.99,0.53300000000002 C15.607,0.53300000000002 16.918,1.84500000000003 16.918,3.46300000000002 C16.918,5.08100000000002 15.607,6.392 13.99,6.392 ZM11.857,7.233 C11.621,7.42200000000003 11.5410000000001,7.48599999999999 11.295,7.48599999999999 C11.049,7.48599999999999 10.9690000000001,7.423 10.7329999999999,7.233 C10.4109999999999,6.97500000000002 9.92399999999998,6.58499999999998 9.04499999999996,6.58499999999998 C8.16700000000003,6.58499999999998 7.67999999999995,6.97500000000002 7.35699999999997,7.233 C7.12099999999998,7.42200000000003 7.04200000000003,7.48599999999999 6.79499999999996,7.48599999999999 C6.54899999999998,7.48599999999999 6.46900000000005,7.423 6.23299999999995,7.233 C5.91099999999994,6.97500000000002 5.42399999999998,6.58499999999998 4.54600000000005,6.58499999999998 C4.351,6.58499999999998 4.17600000000004,6.60500000000002 4.01800000000003,6.637 C4.01800000000003,6.637 7.68399999999997,4.00999999999999 7.68399999999997,4.00999999999999 C7.68399999999997,4.00999999999999 5.83399999999995,2.62799999999999 5.83399999999995,2.62799999999999 C5.83399999999995,2.62799999999999 1.673,3.44600000000003 1.673,3.44600000000003 C1.673,3.44600000000003 2.17600000000004,1.13600000000002 2.17600000000004,1.13600000000002 C2.17600000000004,1.13600000000002 6.178,0 6.178,0 C6.178,0 9.67999999999995,2.61599999999999 9.67999999999995,2.61599999999999 C9.67999999999995,2.61599999999999 12.2430000000001,6.95100000000002 12.2430000000001,6.95100000000002 C12.091,7.04700000000003 11.965,7.14699999999999 11.857,7.233 Z "/></svg>

<svg baseProfile="full" xmlns="http://www.w3.org/2000/svg" height="10" width="18"><path fill="rgb( 255, 102, 0 )" d="M17.438 9.352c-.323.258-.81.648-1.688.648-.879 0-1.366-.39-1.688-.648-.236-.189-.316-.253-.563-.253-.246 0-.325.063-.562.253-.322.258-.809.648-1.687.648-.879 0-1.366-.39-1.688-.648-.236-.19-.316-.253-.562-.253-.247 0-.326.063-.562.253-.323.258-.81.648-1.688.648-.879 0-1.366-.39-1.688-.648-.236-.19-.316-.253-.562-.253-.246 0-.326.063-.562.253-.322.258-.809.648-1.688.648-.879 0-1.366-.39-1.688-.648-.236-.19-.316-.253-.562-.253v-1.803c.879 0 1.366.39 1.688.649.236.189.316.252.562.252.246 0 .326-.063.562-.252.322-.259.809-.649 1.688-.649.878 0 1.365.39 1.688.649.236.189.315.252.562.252.246 0 .326-.063.562-.252.322-.259.809-.649 1.688-.649.878 0 1.365.39 1.687.649.237.189.316.252.563.252.246 0 .325-.063.562-.252.322-.259.809-.649 1.687-.649.879 0 1.366.39 1.688.649.237.189.316.252.563.252.246 0 .326-.063.562-.252.322-.259.809-.649 1.688-.649v1.803c-.246 0-.326.063-.562.253zm-3.448-2.96c-1.617 0-2.928-1.311-2.928-2.929 0-1.618 1.311-2.93 2.928-2.93s2.928 1.312 2.928 2.93-1.311 2.929-2.928 2.929zm-2.133.841c-.236.189-.316.253-.562.253-.246 0-.326-.063-.562-.253-.322-.258-.809-.648-1.688-.648-.878 0-1.365.39-1.688.648-.236.189-.315.253-.562.253-.246 0-.326-.063-.562-.253-.322-.258-.809-.648-1.687-.648-.195 0-.37.02-.528.052l3.666-2.627-1.85-1.382-4.161.818.503-2.31 4.002-1.136 3.502 2.616 2.563 4.335c-.152.096-.278.196-.386.282z"/></svg>
